X:1
T:Title
%%score { ( 1 3 ) | ( 2 4 ) }
L:1/8
Q:1/4=100
M:4/4
K:D
V:1 treble nm="Grand Piano"
V:3 treble 
V:2 bass 
V:4 bass 
V:1
 [DF][EG][E^G][FA] [=GB]2 [FA]2 | D2 E2 F4 | [EG][EG][DF][CE] [DF]2 [FA]2 | [CE]2 [DB]2 [A,CA]4 | %4
w: I.~H.~Meredith * * * * *||||
 [A,DF][A,EG][B,=F^G][A,^FA] [D=GB]2 [DFA]2 | [A,D]2 [A,CE]2 [A,DF]4 | %6
w: ||
 [DFA][DFA][=CFA][CF^A] [B,DB][B,^DF][B,F=A][B,EG] | [DF]2[K:bass] [G,CE]2 [F,D]4 | %8
w: ||
 [Fd]2 [Fd]2 [Fc]2 [Fc]2 | [FB]F .[A,D=F]2 [A,G]2- [A,CG]2 | [Gc]2 [Gc]2 [GB]2 [GB]2 | %11
w: |||
 AE .[A,C^D]2 [A,=DF]4 | [A,DF][A,EG][B,=F^G][A,^FA] [D=GB]2 [DFA]2 | [A,D]2 [A,CE]2 [A,DF]4 | %14
w: |||
 [DFA][DFA][=CFA][CF^A] [B,DB][B,^DF][B,F=A][B,EG] |[M:8/4] [DF]2[K:bass] [G,CE]2 [F,D]4 z8 |] %16
w: ||
V:2
 [D,A,][D,A,][D,A,][D,A,] [D,D]2 [D,D]2 | [F,A,]2 [E,A,C]2 [D,A,D]4 | %2
 [A,,A,][A,,A,][A,,A,][A,,A,] [D,A,]2 [D,D]2 | [E,A,]2 [E,^G,]2 A,,4 | D,D,D,D, D,2 D,2 | %5
 F,2 E,2 D,4 | D,D,D,D, G,B,,^D,E, | A,2 A,,2 D,4 | [D,A,]2 [A,,A,]2 [D,A,]2 [A,,A,]2 | %9
 z D z F E,2 A,,2 | [E,A,]2 [A,,A,]2 [E,A,]2 [A,,A,]2 | [E,A,C]2 z E D,2 A,,2 | D,D,D,D, D,2 D,2 | %13
 F,2 E,2 D,4 | D,D,D,D, G,B,,^D,E, |[M:8/4] A,2 A,,2 D,4 z8 |] %16
V:3
 x8 | x8 | x8 | x8 | x8 | x8 | x8 | x2[K:bass] x6 | x8 | z4 D2 z2 | x8 | x8 | x8 | x8 | x8 | %15
[M:8/4] x2[K:bass] x14 |] %16
V:4
 x8 | x8 | x8 | x8 | x8 | x8 | x8 | x8 | x8 | [D,A,]2 A,,2 z4 | x8 | z2 A,,2 z4 | x8 | x8 | x8 | %15
[M:8/4] x16 |] %16

